X: 1
T:Raggle Taggle Gypsies, The
M:4/4
L:1/8
Q:1/4=180
C:Trad.
O:Scottish/Irish/English?
N:First ending for verses NOT ending with "raggle taggle gypsies-O"
N:Second ending for those that do!
K:D
F2|:"D"F2A2A2AA|F2D2D4|"D"d2d2d2AA|"G"B-AA2"D"A3d|
   d2d2d2A2|"G"B2A2"D"A3E|
   1F2A2A2A2 |"A"E2D2"D"D4|z8|"A"z4"D"z2F2:|
   2FA2AABAG|"/F# /E D"F2E2D4|z8|"A"z4"D"z2|]
